src/assets/icon-black.svg

<svg fill="none" height="35" viewBox="0 0 35 35" width="35" xmlns="http://www.w3.org/2000/svg"><path d="m17.5022 0c-9.6665 0-17.5022 7.83667-17.5022 17.5 0 9.6633 7.8357 17.5 17.5022 17.5 9.6664 0 17.4978-7.8367 17.4978-17.5 0-9.66333-7.8321-17.5-17.4978-17.5zm9.9607 24.9028c-2.1879.1895-4.4496-.6031-6.0968-2.0248-2.9404-2.6732-5.8386-5.392-8.6946-8.1563l-.0044 11.1682c-1.2422.0906-2.4841.1832-3.72586.2777 0-4.7549 0-9.5101 0-14.2654.08966-1.6857-1.42296-2.2461-1.42296-2.2461h5.21102c3.1434 3.2001 6.3429 6.3422 9.5985 9.4261.5647.5496.8467.823 1.4107 1.3668l.013-10.79363h3.7309c-.0062 5.08223-.0127 10.16473-.0195 15.24743z" fill="#000"/></svg>

<svg width="35" height="35" viewBox="0 0 35 35" fill="none" xmlns="http://www.w3.org/2000/svg">
<path d="M17.5022 0C7.8357 0 0 7.83667 0 17.5C0 27.1633 7.8357 35 17.5022 35C27.1686 35 35 27.1633 35 17.5C35 7.83667 27.1679 0 17.5022 0ZM27.4629 24.9028C25.275 25.0923 23.0133 24.2997 21.3661 22.878C18.4257 20.2048 15.5275 17.486 12.6715 14.7217L12.6671 25.8899C11.4249 25.9805 10.183 26.0731 8.94124 26.1676C8.94124 21.4127 8.94124 16.6575 8.94124 11.9022C9.0309 10.2165 7.51828 9.6561 7.51828 9.6561H12.7293C15.8727 12.8562 19.0722 15.9983 22.3278 19.0822C22.8925 19.6318 23.1745 19.9052 23.7385 20.449L23.7515 9.65537H27.4824C27.4762 14.7376 27.4697 19.8201 27.4629 24.9028Z" fill="black"/>
</svg>
